X:1
T:[ID 5-39]
T:[ID 5-39]
T:Bezeichnung standardisiert: Menuett Menuet 7.
T:Urheber unbekannt Erstbeleg: 1773 (Datum in der schriftlichen Quelle) Datum in der hier transkribierten schriftlichen Quelle: 1775
C:Urheber unbekannt
C:Erstbeleg: 1773 (Datum in der schriftlichen Quelle)
C:Datum in der hier transkribierten schriftlichen Quelle: 1775
L:1/8
M:3/4
K:D
V:1 treble 
V:1
 FAdefg | f4 de | f2 d2 F2 | C6 | AGABcd | c4 de | fdcBAB | c6 :: F2 G2 A2 | G2 A2 B2 | c2 e2 d2 | %11
 c4 d2 | e2 ge c2 | d2 fd F2 | GBAGFE | F6 :| %16

